X: 10284
T: Dogs Among The Bushes, The
R: reel
M: 4/4
K: Gmixolydian
BG~G2 DG~G2|BDGB cedc|BG~G2 DG~G2|AF~F2 fdcA|
BG~G2 DG~G2|BDGB c[ec]cA|BGBc defd|cAFA d2cA:|
dgg^f ~g3f|dgga bga^f|dffe f3e|d2ff afgf|
dgg^f ~g3f|d2gb a2ga|b2gb a^fde|fgag fd=cA:|

